X:16
T:Eagle's Whistle, The
R:march
Z:id:hn-march-16
M:2/4
L:1/16
K:G
GA | B2B>B dBAG | B2B>B dBAG | B2A2 A2Bd | B2A2 A2GA |
B2B>B dBAG | B2B>B dBAd | A2G2 G2Bd | A2G2 G2Bd ||
g2d>d edBd | g2d>d edBG | B2A2 A2Bd | B2A2 A2Bd |
g2d>d edBd | g2d>d edBd | A2G2 G2Bd | A2G2 G2ed ||
<end>
<start>
